!!!COM:	Martini, Johannes
!!!CDT:	~1440///-~1497//
!!!OTL:	Sanctorum meritis
!!!AGN:	Motet
!!!SCT:	Mar2087
!!!SCA:	Mar2087
!!!voices:	3
**kern	**kern	**kern
*staff3	*staff2	*staff1
*Ivox	*Ivox	*Ivox
*I"Tenor	*I"Contra	*I"Superius
*I'T	*I'C	*I'S
*>[A,B]	*>[A,B]	*>[A,B]
*>A	*>A	*>A
*clefF4	*clefGv2	*clefG2
*k[]	*k[]	*k[]
*M2/1	*M2/1	*M2/1
*met(C|)	*met(C|)	*met(C|)
!!section: Sanctorum meritis
!!!OMD: Sanctorum meritis
=1-	=1-	=1-
0D	[0A	[0d
=2	=2	=2
0F	0A]	0d]
=3	=3	=3
0G	0B	0e
=4	=4	=4
1.A	1.c	1.f
4G\	4B\	4e/
4F\	4A/	4d/
=5	=5	=5
2.G\	2.B\	2.e/
4A\	4c\	4f/
2B\	2d\	2g/
[2c\	[2e\	[2a/
=6	=6	=6
2c\]	2e\]	2a/]
4B\	4d\	4g#i/
4A\	4c\	4f#i/
1B	1d	1g#i
=7	=7	=7
0A	0c	1a
.	.	1r
=8	=8	=8
1r	1A	0cc
[1c	1F	.
=9	=9	=9
1c]	1A	1cc
1B	1G	1dd
=10	=10	=10
1c	1C	1cc
1d	1G	1b
=11	=11	=11
1c	2A/	1a
.	2F/	.
1B	1G	1r
=12	=12	=12
1A	2.F/	1cc
.	4E/	.
1r	1C	2.cc\
.	.	4b\
=13	=13	=13
1c	0r	2a/
.	.	1g
2.c\	.	.
.	.	[2a/
4B\	.	.
=14	=14	=14
2A\	2c\	2a/]
2B\	2d\	2g/
2G\	2B\	2e/
[2A\	[2c\	[2f/
=15	=15	=15
2A\]	2c\]	2f/]
1G	1B	1e
2E\	4A/	4d/
.	4G/	4c/
=16	=16	=16
1F	2.A/	1d
.	4B\	.
2.E\	2c\	1e
.	[2d\	.
4D\	.	.
=17	=17	=17
1E	2d\]	1r
.	2c#i\	.
2.D\	[1d	1a
4E\	.	.
=18	=18	=18
2.F\	2d\]	2a/
.	2c\	1a
4E\	.	.
2F\	2A/	.
[2G\	[2G/	[2b\
=19	=19	=19
2G\]	4G/]	2b\]
.	4F/	.
2B\	2G/	1g
1A	1D	.
.	.	2f#i/
=20	=20	=20
2.G\	1E	1g
4F\	.	.
2D\	2F/	1a
[2d\	2D/	.
=21	=21	=21
2d\]	1E	1g
2c\	.	.
1d	2D/	1f
.	2F/	.
=22	=22	=22
2B\	2E/	1g
1c	1C	.
.	.	2a/
2A\	2c\	2cc\
=23	=23	=23
1G	2.d\	1b
.	4e\	.
1F	2.f\	1a
.	4e\	.
=24	=24	=24
2r	1c	1cc
2F\	.	.
2.A\	2.c\	2.cc\
4B\	4d\	4b\
=25	=25	=25
1c	1e	4a/
.	.	4g/
.	.	1a
2F\	2d\	.
2E\	[2e\	[2g/
=26	=26	=26
2F\	4e\]	2g/]
.	4d\	.
2A\	1c	1f
1G	.	.
.	2B\	2e/
=27	=27	=27
0F	1.c	1f
.	.	1r
.	[2A/	.
=28	=28	=28
1r	2A/]	1.a
.	2G/	.
[1c	2F/	.
.	4E/	2b\
.	4D/	.
=29	=29	=29
1c]	1C	2.cc\
.	.	4b\
2B\	2G/	2g/
2c\	[2F/	[2a/
=30	=30	=30
2A\	2F/]	2a/]
1d	2D/	4g/
.	.	4f/
.	1A	1e
2c\	.	.
=31	=31	=31
2.d\	2D/	2.d/
.	1F	.
4c\	.	4e/
2.A\	.	4f/
.	.	4g/
.	4E/	[2a/
4B\	4D/	.
=32	=32	=32
2.c\	1C	2a/]
.	.	2g/
4B\	.	.
2G\	2r	2e/
[2A\	[2c\	[2f/
=33	=33	=33
2A\]	2c\]	2f/]
2G\	1B	1e
1F	.	.
.	2A/	2d/
=34	=34	=34
0El	0Bl	0el
=35||	=35||	=35||
*>B	*>B	*>B
*M3/1	*M3/1	*M3/1
*met(O|)	*met(O|)	*met(O|)
!!section: Hi sunt, quos retinens
!!!OMD: Hi sunt, quos retinens
0D	0d	0.r
1E	1c	.
=36	=36	=36
1F	1A	0d
1.G	1.B	.
.	.	1e
4F\	4A/	.
4G\	4B\	.
=37	=37	=37
1A	1c	1f
1.B-	1.d	1.g
4A\	2e\	4f/
4G\	.	4g/
=38	=38	=38
2F\	2f\	2a/
2G\	2d\	2.b-i\
2A\	2c\	.
.	.	4a/
2c\	1e	1a
1B-i	.	.
.	2d\	2g/
=39	=39	=39
1A	1e	0a
1c	2r	.
.	2e\	.
1d	2d\	1r
.	2f\	.
=40	=40	=40
2c\	2e\	1cc
2A\	1a	.
1B-i	.	1dd
.	2g\	.
1A	2a\	2cc\
.	2f\	2a/
=41	=41	=41
0.r	2g\	2b\
.	2.e\	2.cc\
.	4d\	4b\
.	2c\	1a
.	1B	.
.	.	2g#i/
=42	=42	=42
0.A	1A	1a
.	2r	1cc
.	1e	.
.	.	1cc
.	2f\	.
=43	=43	=43
1c	2e\	1g
.	2c\	.
1c	1e	1a
1G	2d\	2g/
.	2B\	2e/
=44	=44	=44
1A	1c	1f
2G\	2B\	2e/
2E\	1B	1e
1F	.	.
.	2A/	2d/
=45	=45	=45
1E	1B	2e/
.	.	2.c/
1A	1c	.
.	.	4d/
.	.	4e/
.	.	4f/
2B\	2d\	2g/
2A\	2c\	2cc\
=46	=46	=46
2G\	2B\	2dd\
1d	1G	2.b\
.	.	4a/
2c\	2A/	1a
1B	1E	.
.	.	2g#i/
=47	=47	=47
1A	2r	1a
.	1e	.
1r	.	1g
.	2c\	.
1r	2d\	2f/
.	2B\	2g/
=48	=48	=48
1r	2A/	2.a/
.	2d\	.
.	.	4b\
1r	2e\	2cc\
.	2f\	2dd\
1G	2g\	1b
.	[2d\	.
=49	=49	=49
2F\	2d\]	2a/
2G\	2B\	4g/
.	.	4f/
2.A\	2c\	2e/
.	1A	2.cc\
4B\	.	.
2c\	.	.
.	.	4b\
2d\	2D/	[2a/
=50	=50	=50
1B	1E	2a/]
.	.	2g#i/
1A	2r	1a
.	2.e\	.
2c\	.	1r
.	4f\	.
2B\	[2g\	.
=51	=51	=51
2G\	4g\]	0.r
.	4f\	.
1A	4e\	.
.	4d\	.
.	2c\	.
2G\	1e	.
1F	.	.
.	2d\	.
=52	=52	=52
1E	1e	1r
1r	1f	1a
1r	1d	1b
=53	=53	=53
1A	1c	2cc\
.	.	4b\
.	.	4cc\
1B	1d	2g/
.	.	2f/
2.c\	1A	2.e/
4B\	.	4d/
=54	=54	=54
2G\	2B\	1d
2F\	1d	.
1E	.	1r
.	2c#i\	.
1D	1d	1f
=55	=55	=55
2E\	2B\	2g/
2F\	2A/	2.a/
2D\	1.d	.
.	.	4g/
2F\	.	2a/
2G\	.	2b\
[2A\	[2c\	2cc\
=56	=56	=56
2A\]	2c\]	2.a/
2D\	2d\	.
.	.	4g/
2A\	2c\	4f/
.	.	4e/
2G\	1B	1e
1F	.	.
.	2A/	2d/
=57	=57	=57
0.El	0.Bl	0.el
==	==	==
*-	*-	*-
!!!RDF**kern: l=long note in original notation
!!!RDF**kern: i=editorial accidental
!!!ENC:	Chris Gage 08-19-2014
!!!END:	2014/10/05/
!!!EED:	Jesse Rodin
!!!EEV:	2014/10/23/
!!!ONB:	Translated from MusicXML and edited on 2014/10/23/ by Craig Sapp
!!muse2ps: C^@{COM}^i2I150v85,85,150Q16
